X: 9350
T: Dancing Dustman, The
R: jig
M: 6/8
K: Gmajor
P: A
K: G Major
|:Gdg|bgd B2 c|edB G2 B|A^GA c2 A|E3- E2 G|
FAc f2 e|d2 c B2 ^A|B^AB e2 B|d3- d2 g|
bgd B2 c|edB G2 B|A^GA c2 A|E3- E2 G|
FAc f2 e|d2 c B2 A|E^EF B2 A|G3-:|
P: B
|:G3|d2 G GG/A/B|A2 G d3|e2 A ABc|B2 A e3|
f2 c cde|f2 f f3|e2 B Bcd|e2 e e2 ^c|
d2 G G2 B|A2 G d3|e2 A- ABc|B2 A e2 =f|
f2 c cc/d/e|fgf f2e|ff/e/d cBA|G3:|
P: A
|:d^cd|bgd B2 c|edB G2 B|A^GA c2 A|E3- E2 G|
F2 A f2 e|d2 c B2 ^A|B^AB e2 B|d3- dcd|
bgd B2 c|edB GFG|A^GA c2 A|e3- e2 G|
F2 A f2 e|ded cBA|E^EF B2 A|G3:|
P: C
K: CMaj
|:G2 F|G2 A G^F=F|E2 G c2 e|d^cd f2 d|A3 AcA|
B^AB BcA|d2 ^c d2 ^d|e^de a2 f|g3 EF^F|
GA^F GF=F|EGG ce/f/e|d^cd f2 d|A2 d ^c2 =c|
B^AB B2 d|a2 g fed|cBc e2 B|c3:|
K: GMaj
"A to close"de/f/g|bgd B2 c|edB G3|A^GA c2 A|E3- E3|
FAc f2 e|d2 c E2 F|B^AB e2 B|d3- d3|
bgd B2 c|edB G3|A^GA c2 A|E3- E3|
F2 A f2 e|d2 c B2 A|E^EF B2 A|G3 g3||

